X: 255
T: Marat's Vagary
%R: reel
Z: 2014 John Chambers <jc:trillian.mit.edu>
B: Preston "Twenty four Country Dances for the Year 1794" p.108 #1
F: http://www.vwml.org/browse/browse-collections-dance-tune-books/browse-prestons1794# 2014-8-10
N: Note clever solution to the length problem for each strain's last note.
N: Most ABC software gets this wrong: There should be both up and down stems, one with a flag and one without.
M: C|
L: 1/8
K: D
|:\
d>edB AFDF | B>cBA Be2c |\
d>efe dBAB | A>BAF Ad [dd2] :|
|: =c |\
BGBd BGBd | BGBd Be2g |\
fdec dB GE | DEFG Ad [d2d] :|
% - - - - - - - - - - - - - - - - - - - - - - - - -
%%begintext align
%%    Foot it & hands across .|
%%  Foot it and left hands back :|
%% Lead down the middle up again :|.
%%          Allemande :|:
%%endtext
% - - - - - - - - - - - - - - - - - - - - - - - - -

%%sep 1 1 500
%%sep 1 1 500
